X:69
T:Calliope House
C:Dave Richardson
M:6/8
R:Jig
K:Dmaj
a3 faa | eaa def | g3 f3 | efe edB |
ABA A2F | A2B d2e |[1 f3 fed | e3 efg :|[2 f3 edB | d3 d2A |]
|: dAA fAA | eAA f2A | Bee e2d | efe edB | ABA A2F |
A2B d2e |[1 f3 fed | e3 e2A :|[2 f3 edB | d3 dfg |]

%%newpage
%%scale .70
%%staffsep 46

